assets/images/burger.svg

<svg width="26" height="18" viewBox="0 0 26 18" fill="none" xmlns="http://www.w3.org/2000/svg">
<path fill-rule="evenodd" clip-rule="evenodd" d="M-5.43597e-08 1C-8.43817e-08 0.447716 0.447716 4.82564e-08 1 1.62944e-08L25 -1.37264e-06C25.5523 -1.4046e-06 26 0.447714 26 0.999999C26 1.55228 25.5523 2 25 2L1 2C0.447716 2 -2.43377e-08 1.55229 -5.43597e-08 1Z" fill="black"/>
<path fill-rule="evenodd" clip-rule="evenodd" d="M-5.43597e-08 9C-8.43817e-08 8.44772 0.447716 8 1 8L25 8C25.5523 8 26 8.44771 26 9C26 9.55228 25.5523 10 25 10L1 10C0.447716 10 -2.43377e-08 9.55229 -5.43597e-08 9Z" fill="black"/>
<path fill-rule="evenodd" clip-rule="evenodd" d="M-5.43597e-08 17C-8.43817e-08 16.4477 0.447716 16 1 16L25 16C25.5523 16 26 16.4477 26 17C26 17.5523 25.5523 18 25 18L1 18C0.447716 18 -2.43377e-08 17.5523 -5.43597e-08 17Z" fill="black"/>
</svg>

<svg xmlns="http://www.w3.org/2000/svg" width="26" height="18" fill="none"><path fill="#000" fill-rule="evenodd" d="M0 1a1 1 0 0 1 1-1h24a1 1 0 1 1 0 2H1a1 1 0 0 1-1-1M0 9a1 1 0 0 1 1-1h24a1 1 0 1 1 0 2H1a1 1 0 0 1-1-1M0 17a1 1 0 0 1 1-1h24a1 1 0 1 1 0 2H1a1 1 0 0 1-1-1" clip-rule="evenodd"/></svg>
